src/assets/images/toolbox/vite.svg

<svg
  width="32"
  height="32"
  viewBox="0 0 32 32"
  fill="transparent"
  xmlns="http://www.w3.org/2000/svg">
  <path
    fill="url(#paint0_linear_11_329)"
    d="M31.8967 4.73702L16.8624 31.582C16.7918 31.7082 16.6889 31.8135 16.5641 31.8869C16.4394 31.9604 16.2973 31.9994 16.1525 32C16.0077 32.0006 15.8653 31.9627 15.74 31.8903C15.6147 31.8178 15.5109 31.7134 15.4393 31.5877L0.107602 4.73931C0.0305201 4.6046 -0.00648434 4.45072 0.000930955 4.29575C0.00834625 4.14077 0.0598738 3.99112 0.149467 3.86436C0.23906 3.7376 0.363002 3.63899 0.506748 3.58009C0.650493 3.5212 0.80808 3.50446 0.961015 3.53186L16.0113 6.21864C16.107 6.23584 16.205 6.23584 16.3007 6.21864L31.0364 3.53643C31.1887 3.50863 31.3458 3.52465 31.4894 3.58263C31.633 3.6406 31.7571 3.73814 31.8473 3.86386C31.9374 3.98958 31.99 4.13832 31.9987 4.29271C32.0074 4.44711 31.9721 4.60195 31.8967 4.73702Z"
  />
  <path
    fill="url(#paint1_linear_11_329)"
    d="M23.1795 0.00888306L12.0554 2.18504C11.9663 2.2024 11.8856 2.24888 11.8259 2.31714C11.7663 2.3854 11.7311 2.47156 11.7259 2.56201L11.0418 14.1042C11.038 14.1675 11.0491 14.2309 11.0741 14.2892C11.0992 14.3475 11.1375 14.3991 11.186 14.44C11.2345 14.481 11.292 14.51 11.3537 14.5249C11.4155 14.5398 11.4798 14.5401 11.5417 14.5257L14.6385 13.8118C14.7052 13.7964 14.7747 13.798 14.8407 13.8164C14.9066 13.8349 14.9668 13.8696 15.0158 13.9174C15.0648 13.9651 15.101 14.0245 15.121 14.0898C15.141 14.1552 15.1443 14.2246 15.1304 14.2915L14.2106 18.7912C14.1965 18.8605 14.2005 18.9323 14.2225 18.9995C14.2445 19.0667 14.2836 19.1271 14.3359 19.1746C14.3883 19.2222 14.4522 19.2554 14.5213 19.2709C14.5904 19.2864 14.6623 19.2837 14.73 19.263L16.6428 18.6827C16.7106 18.662 16.7827 18.6592 16.8519 18.6748C16.9211 18.6903 16.985 18.7236 17.0374 18.7713C17.0899 18.8191 17.1289 18.8796 17.1508 18.947C17.1727 19.0144 17.1766 19.0863 17.1621 19.1556L15.699 26.2233C15.6075 26.6654 16.1966 26.9064 16.4426 26.5283L16.6062 26.2747L25.6722 8.20859C25.7063 8.14052 25.7205 8.0643 25.7135 7.98855C25.7064 7.91279 25.6782 7.84053 25.6322 7.77992C25.5861 7.71931 25.524 7.67278 25.4528 7.64558C25.3817 7.61838 25.3043 7.6116 25.2295 7.626L22.0412 8.23944C21.9726 8.25255 21.9017 8.24786 21.8354 8.22582C21.7691 8.20378 21.7096 8.16513 21.6626 8.11355C21.6155 8.06197 21.5825 7.9992 21.5667 7.93124C21.5508 7.86328 21.5527 7.7924 21.5722 7.72538L23.652 0.521793C23.6716 0.454559 23.6735 0.383418 23.6576 0.315223C23.6416 0.247027 23.6084 0.184073 23.561 0.132426C23.5137 0.0807785 23.4538 0.0421769 23.3872 0.0203389C23.3206 -0.00149919 23.2494 -0.00583777 23.1806 0.00774081L23.1795 0.00888306Z"
  />
  <defs>
    <linearGradient
      id="paint0_linear_11_329"
      x1="-0.26703"
      y1="-1.06391"
      x2="21.3205"
      y2="25.0672"
      gradientUnits="userSpaceOnUse">
      <stop
        stop-color="#41D1FF"
      />
      <stop
        offset="1"
        stop-color="#BD34FE"
      />
    </linearGradient>
    <linearGradient
      id="paint1_linear_11_329"
      x1="15.1464"
      y1="0.599223"
      x2="18.5214"
      y2="23.7849"
      gradientUnits="userSpaceOnUse">
      <stop
        stop-color="#FFEA83"
      />
      <stop
        offset="0.083"
        stop-color="#FFDD35"
      />
      <stop
        offset="1"
        stop-color="#FFA800"
      />
    </linearGradient>
  </defs>
</svg>

<svg xmlns="http://www.w3.org/2000/svg" width="32" height="32" fill="transparent" xmlns:v="https://vecta.io/nano">
  <path fill="url(#A)"
    d="M31.897 4.737L16.862 31.582c-.071.126-.174.232-.298.305s-.267.113-.412.113a.82.82 0 0 1-.412-.11c-.125-.073-.229-.177-.301-.303L.108 4.739c-.077-.135-.114-.289-.107-.444s.059-.305.149-.431.214-.225.357-.284a.82.82 0 0 1 .454-.048l15.05 2.687a.82.82 0 0 0 .289 0l14.736-2.682a.82.82 0 0 1 .453.046c.144.058.268.156.358.281s.143.274.151.429a.82.82 0 0 1-.102.444z" />
  <path fill="url(#B)"
    d="M23.18.009L12.055 2.185a.41.41 0 0 0-.229.132c-.06.068-.095.154-.1.245l-.684 11.542c-.004.063.007.127.032.185a.41.41 0 0 0 .28.236c.062.015.126.015.188.001l3.097-.714a.41.41 0 0 1 .377.106c.049.048.085.107.105.172s.023.135.009.202l-.92 4.5a.41.41 0 0 0 .125.383.41.41 0 0 0 .394.088l1.913-.58a.41.41 0 0 1 .395.089c.052.048.091.108.113.176s.026.139.011.209l-1.463 7.068c-.091.442.498.683.744.305l.164-.254 9.066-18.066c.034-.068.048-.144.041-.22a.41.41 0 0 0-.261-.343.41.41 0 0 0-.223-.02l-3.188.613a.41.41 0 0 1-.206-.014c-.066-.022-.126-.061-.173-.112s-.08-.114-.096-.182-.014-.139.005-.206l2.08-7.204c.02-.067.021-.138.006-.207a.41.41 0 0 0-.27-.295.41.41 0 0 0-.207-.013l-.001.001z" />
  <defs>
    <linearGradient id="A" x1="-.267" y1="-1.064" x2="21.321" y2="25.067" gradientUnits="userSpaceOnUse">
      <stop stop-color="#41d1ff" />
      <stop offset="1" stop-color="#bd34fe" />
    </linearGradient>
    <linearGradient id="B" x1="15.146" y1=".599" x2="18.521" y2="23.785" gradientUnits="userSpaceOnUse">
      <stop stop-color="#ffea83" />
      <stop offset=".083" stop-color="#ffdd35" />
      <stop offset="1" stop-color="#ffa800" />
    </linearGradient>
  </defs>
</svg>
